X: 6534
T: Catchphrase, The
R: waltz
M: 3/4
K: Bminor
FBd|:"Bm"f2fe ge|f2fd ec|d2Bd- dc|1 AB BF Bd:|2 AB BA Bd||
|:"Esus4"e2ed fd|e2ed ef|a2fe- ed|ef ed Bd:|

